images/3232960.svg

<?xml version="1.0" encoding="UTF-8"?>
<svg xmlns="http://www.w3.org/2000/svg" xmlns:xlink="http://www.w3.org/1999/xlink" width="300pt" height="300pt" viewBox="0 0 300 300" version="1.1">
<defs>
<g>
<symbol overflow="visible" id="glyph0-0">
<path style="stroke:none;" d="M 0.59375 2.125 L 0.59375 -8.46875 L 6.59375 -8.46875 L 6.59375 2.125 Z M 1.265625 1.453125 L 5.9375 1.453125 L 5.9375 -7.78125 L 1.265625 -7.78125 Z M 1.265625 1.453125 "/>
</symbol>
<symbol overflow="visible" id="glyph0-1">
<path style="stroke:none;" d="M 1.171875 -8.75 L 2.765625 -8.75 L 6.65625 -1.4375 L 6.65625 -8.75 L 7.796875 -8.75 L 7.796875 0 L 6.203125 0 L 2.328125 -7.3125 L 2.328125 0 L 1.171875 0 Z M 1.171875 -8.75 "/>
</symbol>
<symbol overflow="visible" id="glyph0-2">
<path style="stroke:none;" d="M 1.171875 -8.75 L 2.359375 -8.75 L 2.359375 -5.15625 L 6.65625 -5.15625 L 6.65625 -8.75 L 7.84375 -8.75 L 7.84375 0 L 6.65625 0 L 6.65625 -4.171875 L 2.359375 -4.171875 L 2.359375 0 L 1.171875 0 Z M 1.171875 -8.75 "/>
</symbol>
<symbol overflow="visible" id="glyph0-3">
<path style="stroke:none;" d="M 4.734375 -7.953125 C 3.867188 -7.953125 3.179688 -7.628906 2.671875 -6.984375 C 2.171875 -6.347656 1.921875 -5.472656 1.921875 -4.359375 C 1.921875 -3.265625 2.171875 -2.394531 2.671875 -1.75 C 3.179688 -1.113281 3.867188 -0.796875 4.734375 -0.796875 C 5.585938 -0.796875 6.265625 -1.113281 6.765625 -1.75 C 7.273438 -2.394531 7.53125 -3.265625 7.53125 -4.359375 C 7.53125 -5.472656 7.273438 -6.347656 6.765625 -6.984375 C 6.265625 -7.628906 5.585938 -7.953125 4.734375 -7.953125 Z M 4.734375 -8.90625 C 5.953125 -8.90625 6.925781 -8.492188 7.65625 -7.671875 C 8.394531 -6.847656 8.765625 -5.742188 8.765625 -4.359375 C 8.765625 -2.984375 8.394531 -1.882812 7.65625 -1.0625 C 6.925781 -0.238281 5.953125 0.171875 4.734375 0.171875 C 3.503906 0.171875 2.519531 -0.238281 1.78125 -1.0625 C 1.039062 -1.882812 0.671875 -2.984375 0.671875 -4.359375 C 0.671875 -5.742188 1.039062 -6.847656 1.78125 -7.671875 C 2.519531 -8.492188 3.503906 -8.90625 4.734375 -8.90625 Z M 4.734375 -8.90625 "/>
</symbol>
</g>
</defs>
<g id="surface29781">
<rect x="0" y="0" width="300" height="300" style="fill:rgb(100%,100%,100%);fill-opacity:1;stroke:none;"/>
<path style="fill:none;stroke-width:1.2;stroke-linecap:butt;stroke-linejoin:miter;stroke:rgb(0%,0%,0%);stroke-opacity:1;stroke-miterlimit:10;" d="M 264.75 158.484375 L 234.597656 153.160156 "/>
<path style="fill:none;stroke-width:1.2;stroke-linecap:butt;stroke-linejoin:miter;stroke:rgb(0%,0%,0%);stroke-opacity:1;stroke-miterlimit:10;" d="M 234.597656 153.160156 L 214.914062 176.613281 "/>
<path style="fill:none;stroke-width:1.2;stroke-linecap:butt;stroke-linejoin:miter;stroke:rgb(0%,0%,0%);stroke-opacity:1;stroke-miterlimit:10;" d="M 227.113281 150.875 L 211.363281 169.636719 "/>
<path style="fill:none;stroke-width:1.2;stroke-linecap:butt;stroke-linejoin:miter;stroke:rgb(0%,0%,100%);stroke-opacity:1;stroke-miterlimit:10;" d="M 224.132812 124.386719 L 229.363281 138.773438 "/>
<path style="fill:none;stroke-width:1.2;stroke-linecap:butt;stroke-linejoin:miter;stroke:rgb(0%,0%,0%);stroke-opacity:1;stroke-miterlimit:10;" d="M 229.363281 138.773438 L 234.597656 153.160156 "/>
<path style="fill:none;stroke-width:1.2;stroke-linecap:butt;stroke-linejoin:miter;stroke:rgb(0%,0%,0%);stroke-opacity:1;stroke-miterlimit:10;" d="M 214.914062 176.613281 L 199.835938 173.953125 "/>
<path style="fill:none;stroke-width:1.2;stroke-linecap:butt;stroke-linejoin:miter;stroke:rgb(0%,0%,100%);stroke-opacity:1;stroke-miterlimit:10;" d="M 199.835938 173.953125 L 184.761719 171.289062 "/>
<path style="fill:none;stroke-width:1.2;stroke-linecap:butt;stroke-linejoin:miter;stroke:rgb(0%,0%,100%);stroke-opacity:1;stroke-miterlimit:10;" d="M 184.761719 171.289062 L 179.527344 156.902344 "/>
<path style="fill:none;stroke-width:1.2;stroke-linecap:butt;stroke-linejoin:miter;stroke:rgb(0%,0%,0%);stroke-opacity:1;stroke-miterlimit:10;" d="M 179.527344 156.902344 L 174.292969 142.515625 "/>
<path style="fill:none;stroke-width:1.2;stroke-linecap:butt;stroke-linejoin:miter;stroke:rgb(0%,0%,100%);stroke-opacity:1;stroke-miterlimit:10;" d="M 190.484375 165.949219 L 186.296875 154.441406 "/>
<path style="fill:none;stroke-width:1.2;stroke-linecap:butt;stroke-linejoin:miter;stroke:rgb(0%,0%,0%);stroke-opacity:1;stroke-miterlimit:10;" d="M 186.296875 154.441406 L 182.113281 142.929688 "/>
<path style=" stroke:none;fill-rule:nonzero;fill:rgb(100%,100%,100%);fill-opacity:1;" d="M 180.761719 164.289062 L 189.761719 164.289062 L 189.761719 178.289062 L 180.761719 178.289062 Z M 180.761719 164.289062 "/>
<g style="fill:rgb(0%,0%,100%);fill-opacity:1;">
  <use xlink:href="#glyph0-1" x="180.761719" y="175.427734"/>
</g>
<path style="fill:none;stroke-width:1.2;stroke-linecap:butt;stroke-linejoin:miter;stroke:rgb(0%,0%,0%);stroke-opacity:1;stroke-miterlimit:10;" d="M 174.292969 142.515625 L 193.980469 119.066406 "/>
<path style="fill:none;stroke-width:1.2;stroke-linecap:butt;stroke-linejoin:miter;stroke:rgb(0%,0%,0%);stroke-opacity:1;stroke-miterlimit:10;" d="M 174.292969 142.515625 L 144.144531 137.195312 "/>
<path style="fill:none;stroke-width:1.2;stroke-linecap:butt;stroke-linejoin:miter;stroke:rgb(0%,0%,0%);stroke-opacity:1;stroke-miterlimit:10;" d="M 193.980469 119.066406 L 209.054688 121.726562 "/>
<path style="fill:none;stroke-width:1.2;stroke-linecap:butt;stroke-linejoin:miter;stroke:rgb(0%,0%,100%);stroke-opacity:1;stroke-miterlimit:10;" d="M 209.054688 121.726562 L 224.132812 124.386719 "/>
<path style="fill:none;stroke-width:1.2;stroke-linecap:butt;stroke-linejoin:miter;stroke:rgb(0%,0%,0%);stroke-opacity:1;stroke-miterlimit:10;" d="M 195.742188 126.691406 L 207.804688 128.820312 "/>
<path style="fill:none;stroke-width:1.2;stroke-linecap:butt;stroke-linejoin:miter;stroke:rgb(0%,0%,100%);stroke-opacity:1;stroke-miterlimit:10;" d="M 207.804688 128.820312 L 219.863281 130.949219 "/>
<path style=" stroke:none;fill-rule:nonzero;fill:rgb(100%,100%,100%);fill-opacity:1;" d="M 220.132812 117.386719 L 229.132812 117.386719 L 229.132812 131.386719 L 220.132812 131.386719 Z M 220.132812 117.386719 "/>
<g style="fill:rgb(0%,0%,100%);fill-opacity:1;">
  <use xlink:href="#glyph0-1" x="220.132812" y="128.525391"/>
</g>
<path style="fill:none;stroke-width:1.2;stroke-linecap:butt;stroke-linejoin:miter;stroke:rgb(0%,0%,0%);stroke-opacity:1;stroke-miterlimit:10;" d="M 144.144531 137.195312 L 138.910156 122.808594 "/>
<path style="fill:none;stroke-width:1.2;stroke-linecap:butt;stroke-linejoin:miter;stroke:rgb(0%,0%,100%);stroke-opacity:1;stroke-miterlimit:10;" d="M 138.910156 122.808594 L 133.675781 108.421875 "/>
<path style="fill:none;stroke-width:1.2;stroke-linecap:butt;stroke-linejoin:miter;stroke:rgb(0%,0%,100%);stroke-opacity:1;stroke-miterlimit:10;" d="M 133.675781 108.421875 L 118.601562 105.757812 "/>
<path style="fill:none;stroke-width:1.2;stroke-linecap:butt;stroke-linejoin:miter;stroke:rgb(0%,0%,0%);stroke-opacity:1;stroke-miterlimit:10;" d="M 118.601562 105.757812 L 103.523438 103.097656 "/>
<path style=" stroke:none;fill-rule:nonzero;fill:rgb(100%,100%,100%);fill-opacity:1;" d="M 124.675781 101.421875 L 142.675781 101.421875 L 142.675781 115.421875 L 124.675781 115.421875 Z M 124.675781 101.421875 "/>
<g style="fill:rgb(0%,0%,100%);fill-opacity:1;">
  <use xlink:href="#glyph0-1" x="124.675781" y="112.560547"/>
  <use xlink:href="#glyph0-2" x="133.652344" y="112.560547"/>
</g>
<path style="fill:none;stroke-width:1.2;stroke-linecap:butt;stroke-linejoin:miter;stroke:rgb(0%,0%,0%);stroke-opacity:1;stroke-miterlimit:10;" d="M 103.523438 103.097656 L 98.292969 88.710938 "/>
<path style="fill:none;stroke-width:1.2;stroke-linecap:butt;stroke-linejoin:miter;stroke:rgb(0%,0%,100%);stroke-opacity:1;stroke-miterlimit:10;" d="M 98.292969 88.710938 L 93.058594 74.324219 "/>
<path style="fill:none;stroke-width:1.2;stroke-linecap:butt;stroke-linejoin:miter;stroke:rgb(0%,0%,0%);stroke-opacity:1;stroke-miterlimit:10;" d="M 95.707031 102.683594 L 91.519531 91.175781 "/>
<path style="fill:none;stroke-width:1.2;stroke-linecap:butt;stroke-linejoin:miter;stroke:rgb(0%,0%,100%);stroke-opacity:1;stroke-miterlimit:10;" d="M 91.519531 91.175781 L 87.335938 79.664062 "/>
<path style="fill:none;stroke-width:1.2;stroke-linecap:butt;stroke-linejoin:miter;stroke:rgb(0%,0%,0%);stroke-opacity:1;stroke-miterlimit:10;" d="M 83.839844 126.550781 L 103.523438 103.097656 "/>
<path style="fill:none;stroke-width:1.2;stroke-linecap:butt;stroke-linejoin:miter;stroke:rgb(0%,0%,100%);stroke-opacity:1;stroke-miterlimit:10;" d="M 93.058594 74.324219 L 77.984375 71.664062 "/>
<path style="fill:none;stroke-width:1.2;stroke-linecap:butt;stroke-linejoin:miter;stroke:rgb(0%,0%,0%);stroke-opacity:1;stroke-miterlimit:10;" d="M 77.984375 71.664062 L 62.90625 69.003906 "/>
<path style=" stroke:none;fill-rule:nonzero;fill:rgb(100%,100%,100%);fill-opacity:1;" d="M 89.058594 67.324219 L 98.058594 67.324219 L 98.058594 81.324219 L 89.058594 81.324219 Z M 89.058594 67.324219 "/>
<g style="fill:rgb(0%,0%,100%);fill-opacity:1;">
  <use xlink:href="#glyph0-1" x="89.058594" y="78.462891"/>
</g>
<path style="fill:none;stroke-width:1.2;stroke-linecap:butt;stroke-linejoin:miter;stroke:rgb(0%,0%,0%);stroke-opacity:1;stroke-miterlimit:10;" d="M 62.90625 69.003906 L 53.0625 80.726562 "/>
<path style="fill:none;stroke-width:1.2;stroke-linecap:butt;stroke-linejoin:miter;stroke:rgb(0%,0%,100%);stroke-opacity:1;stroke-miterlimit:10;" d="M 53.0625 80.726562 L 43.222656 92.453125 "/>
<path style="fill:none;stroke-width:1.2;stroke-linecap:butt;stroke-linejoin:miter;stroke:rgb(0%,0%,0%);stroke-opacity:1;stroke-miterlimit:10;" d="M 66.457031 75.980469 L 58.582031 85.359375 "/>
<path style="fill:none;stroke-width:1.2;stroke-linecap:butt;stroke-linejoin:miter;stroke:rgb(0%,0%,100%);stroke-opacity:1;stroke-miterlimit:10;" d="M 58.582031 85.359375 L 50.707031 94.738281 "/>
<path style="fill:none;stroke-width:1.2;stroke-linecap:butt;stroke-linejoin:miter;stroke:rgb(0%,0%,100%);stroke-opacity:1;stroke-miterlimit:10;" d="M 43.222656 92.453125 L 48.453125 106.839844 "/>
<path style="fill:none;stroke-width:1.2;stroke-linecap:butt;stroke-linejoin:miter;stroke:rgb(0%,0%,0%);stroke-opacity:1;stroke-miterlimit:10;" d="M 48.453125 106.839844 L 53.6875 121.226562 "/>
<path style=" stroke:none;fill-rule:nonzero;fill:rgb(100%,100%,100%);fill-opacity:1;" d="M 39.222656 85.453125 L 48.222656 85.453125 L 48.222656 99.453125 L 39.222656 99.453125 Z M 39.222656 85.453125 "/>
<g style="fill:rgb(0%,0%,100%);fill-opacity:1;">
  <use xlink:href="#glyph0-1" x="39.222656" y="96.591797"/>
</g>
<path style="fill:none;stroke-width:1.2;stroke-linecap:butt;stroke-linejoin:miter;stroke:rgb(0%,0%,0%);stroke-opacity:1;stroke-miterlimit:10;" d="M 53.6875 121.226562 L 83.839844 126.550781 "/>
<path style="fill:none;stroke-width:1.2;stroke-linecap:butt;stroke-linejoin:miter;stroke:rgb(0%,0%,0%);stroke-opacity:1;stroke-miterlimit:10;" d="M 57.957031 114.664062 L 82.078125 118.921875 "/>
<path style="fill:none;stroke-width:1.2;stroke-linecap:butt;stroke-linejoin:miter;stroke:rgb(0%,0%,0%);stroke-opacity:1;stroke-miterlimit:10;" d="M 83.839844 126.550781 L 94.304688 155.324219 "/>
<path style="fill:none;stroke-width:1.2;stroke-linecap:butt;stroke-linejoin:miter;stroke:rgb(0%,0%,0%);stroke-opacity:1;stroke-miterlimit:10;" d="M 94.304688 155.324219 L 74.621094 178.773438 "/>
<path style="fill:none;stroke-width:1.2;stroke-linecap:butt;stroke-linejoin:miter;stroke:rgb(0%,0%,0%);stroke-opacity:1;stroke-miterlimit:10;" d="M 97.855469 162.300781 L 82.105469 181.058594 "/>
<path style="fill:none;stroke-width:1.2;stroke-linecap:butt;stroke-linejoin:miter;stroke:rgb(0%,0%,0%);stroke-opacity:1;stroke-miterlimit:10;" d="M 124.457031 160.644531 L 94.304688 155.324219 "/>
<path style="fill:none;stroke-width:1.2;stroke-linecap:butt;stroke-linejoin:miter;stroke:rgb(0%,0%,0%);stroke-opacity:1;stroke-miterlimit:10;" d="M 74.621094 178.773438 L 85.085938 207.546875 "/>
<path style="fill:none;stroke-width:1.2;stroke-linecap:butt;stroke-linejoin:miter;stroke:rgb(0%,0%,0%);stroke-opacity:1;stroke-miterlimit:10;" d="M 85.085938 207.546875 L 115.238281 212.871094 "/>
<path style="fill:none;stroke-width:1.2;stroke-linecap:butt;stroke-linejoin:miter;stroke:rgb(0%,0%,0%);stroke-opacity:1;stroke-miterlimit:10;" d="M 89.355469 200.984375 L 113.476562 205.242188 "/>
<path style="fill:none;stroke-width:1.2;stroke-linecap:butt;stroke-linejoin:miter;stroke:rgb(0%,0%,0%);stroke-opacity:1;stroke-miterlimit:10;" d="M 85.085938 207.546875 L 75.246094 219.273438 "/>
<path style="fill:none;stroke-width:1.2;stroke-linecap:butt;stroke-linejoin:miter;stroke:rgb(100%,0%,0%);stroke-opacity:1;stroke-miterlimit:10;" d="M 75.246094 219.273438 L 65.402344 230.996094 "/>
<path style="fill:none;stroke-width:1.2;stroke-linecap:butt;stroke-linejoin:miter;stroke:rgb(0%,0%,0%);stroke-opacity:1;stroke-miterlimit:10;" d="M 115.238281 212.871094 L 134.925781 189.417969 "/>
<path style="fill:none;stroke-width:1.2;stroke-linecap:butt;stroke-linejoin:miter;stroke:rgb(0%,0%,0%);stroke-opacity:1;stroke-miterlimit:10;" d="M 134.925781 189.417969 L 124.457031 160.644531 "/>
<path style="fill:none;stroke-width:1.2;stroke-linecap:butt;stroke-linejoin:miter;stroke:rgb(0%,0%,0%);stroke-opacity:1;stroke-miterlimit:10;" d="M 127.105469 189.003906 L 118.734375 165.984375 "/>
<path style="fill:none;stroke-width:1.2;stroke-linecap:butt;stroke-linejoin:miter;stroke:rgb(100%,0%,0%);stroke-opacity:1;stroke-miterlimit:10;" d="M 65.402344 230.996094 L 50.324219 228.335938 "/>
<path style="fill:none;stroke-width:1.2;stroke-linecap:butt;stroke-linejoin:miter;stroke:rgb(0%,0%,0%);stroke-opacity:1;stroke-miterlimit:10;" d="M 50.324219 228.335938 L 35.25 225.675781 "/>
<path style=" stroke:none;fill-rule:nonzero;fill:rgb(100%,100%,100%);fill-opacity:1;" d="M 60.402344 223.996094 L 70.402344 223.996094 L 70.402344 237.996094 L 60.402344 237.996094 Z M 60.402344 223.996094 "/>
<g style="fill:rgb(100%,0%,0%);fill-opacity:1;">
  <use xlink:href="#glyph0-3" x="60.402344" y="235.134766"/>
</g>
</g>
</svg>

<svg xmlns="http://www.w3.org/2000/svg" xmlns:xlink="http://www.w3.org/1999/xlink" width="300pt" height="300pt" viewBox="0 0 300 300"><defs><symbol overflow="visible"><path d="M.594 2.125V-8.47h6V2.126zm.672-.672h4.671V-7.78h-4.67zm0 0"/></symbol><symbol overflow="visible" id="a"><path d="M1.172-8.75h1.594l3.89 7.313V-8.75h1.14V0H6.204L2.328-7.313V0H1.172zm0 0"/></symbol><symbol overflow="visible" id="b"><path d="M1.172-8.75H2.36v3.594h4.296V-8.75h1.188V0H6.656v-4.172H2.36V0H1.17zm0 0"/></symbol><symbol overflow="visible" id="c"><path d="M4.734-7.953c-.867 0-1.554.324-2.062.97-.5.635-.75 1.51-.75 2.624 0 1.094.25 1.965.75 2.61.508.637 1.195.953 2.062.953.852 0 1.532-.316 2.032-.953.507-.645.765-1.516.765-2.61 0-1.113-.257-1.988-.764-2.624-.5-.645-1.18-.97-2.032-.97zm0-.953c1.22 0 2.192.414 2.922 1.234.74.824 1.11 1.93 1.11 3.313 0 1.376-.37 2.477-1.11 3.298C6.926-.24 5.953.17 4.734.17c-1.23 0-2.214-.41-2.953-1.234C1.04-1.882.673-2.984.673-4.36c0-1.382.367-2.488 1.11-3.312.738-.82 1.722-1.234 2.952-1.234zm0 0"/></symbol></defs><g><path fill="#fff" d="M0 0h300v300H0z"/><path d="M264.75 158.484l-30.152-5.324M234.598 153.16l-19.684 23.453M227.113 150.875l-15.75 18.762" stroke-width="1.2" stroke="#000" stroke-miterlimit="10" fill="none"/><path d="M224.133 124.387l5.23 14.386" stroke-width="1.2" stroke="#00f" stroke-miterlimit="10" fill="none"/><path d="M229.363 138.773l5.235 14.387M214.914 176.613l-15.078-2.66" stroke-width="1.2" stroke="#000" stroke-miterlimit="10" fill="none"/><path d="M199.836 173.953l-15.074-2.664M184.762 171.29l-5.235-14.388" stroke-width="1.2" stroke="#00f" stroke-miterlimit="10" fill="none"/><path d="M179.527 156.902l-5.234-14.386" stroke-width="1.2" stroke="#000" stroke-miterlimit="10" fill="none"/><path d="M190.484 165.95l-4.187-11.51" stroke-width="1.2" stroke="#00f" stroke-miterlimit="10" fill="none"/><path d="M186.297 154.44l-4.184-11.51" stroke-width="1.2" stroke="#000" stroke-miterlimit="10" fill="none"/><path d="M180.762 164.29h9v14h-9zm0 0" fill="#fff"/><use xlink:href="#a" x="180.762" y="175.428" fill="#00f"/><path d="M174.293 142.516l19.687-23.45M174.293 142.516l-30.148-5.32M193.98 119.066l15.075 2.66" stroke-width="1.2" stroke="#000" stroke-miterlimit="10" fill="none"/><path d="M209.055 121.727l15.078 2.66" stroke-width="1.2" stroke="#00f" stroke-miterlimit="10" fill="none"/><path d="M195.742 126.69l12.063 2.13" stroke-width="1.2" stroke="#000" stroke-miterlimit="10" fill="none"/><path d="M207.805 128.82l12.058 2.13" stroke-width="1.2" stroke="#00f" stroke-miterlimit="10" fill="none"/><path d="M220.133 117.387h9v14h-9zm0 0" fill="#fff"/><use xlink:href="#a" x="220.133" y="128.525" fill="#00f"/><path d="M144.145 137.195l-5.235-14.386" stroke-width="1.2" stroke="#000" stroke-miterlimit="10" fill="none"/><path d="M138.91 122.81l-5.234-14.388M133.676 108.422l-15.074-2.664" stroke-width="1.2" stroke="#00f" stroke-miterlimit="10" fill="none"/><path d="M118.602 105.758l-15.08-2.66" stroke-width="1.2" stroke="#000" stroke-miterlimit="10" fill="none"/><path d="M124.676 101.422h18v14h-18zm0 0" fill="#fff"/><g fill="#00f"><use xlink:href="#a" x="124.676" y="112.561"/><use xlink:href="#b" x="133.652" y="112.561"/></g><path d="M103.523 103.098l-5.23-14.387" stroke-width="1.2" stroke="#000" stroke-miterlimit="10" fill="none"/><path d="M98.293 88.71L93.06 74.325" stroke-width="1.2" stroke="#00f" stroke-miterlimit="10" fill="none"/><path d="M95.707 102.684L91.52 91.176" stroke-width="1.2" stroke="#000" stroke-miterlimit="10" fill="none"/><path d="M91.52 91.176l-4.184-11.512" stroke-width="1.2" stroke="#00f" stroke-miterlimit="10" fill="none"/><path d="M83.84 126.55l19.683-23.452" stroke-width="1.2" stroke="#000" stroke-miterlimit="10" fill="none"/><path d="M93.06 74.324l-15.076-2.66" stroke-width="1.2" stroke="#00f" stroke-miterlimit="10" fill="none"/><path d="M77.984 71.664l-15.078-2.66" stroke-width="1.2" stroke="#000" stroke-miterlimit="10" fill="none"/><path d="M89.06 67.324h9v14h-9zm0 0" fill="#fff"/><use xlink:href="#a" x="89.059" y="78.463" fill="#00f"/><path d="M62.906 69.004l-9.843 11.723" stroke-width="1.2" stroke="#000" stroke-miterlimit="10" fill="none"/><path d="M53.063 80.727l-9.84 11.726" stroke-width="1.2" stroke="#00f" stroke-miterlimit="10" fill="none"/><path d="M66.457 75.98l-7.875 9.38" stroke-width="1.2" stroke="#000" stroke-miterlimit="10" fill="none"/><path d="M58.582 85.36l-7.875 9.378M43.223 92.453l5.23 14.387" stroke-width="1.2" stroke="#00f" stroke-miterlimit="10" fill="none"/><path d="M48.453 106.84l5.234 14.387" stroke-width="1.2" stroke="#000" stroke-miterlimit="10" fill="none"/><path d="M39.223 85.453h9v14h-9zm0 0" fill="#fff"/><use xlink:href="#a" x="39.223" y="96.592" fill="#00f"/><path d="M53.688 121.227l30.152 5.324M57.957 114.664l24.12 4.258M83.84 126.55l10.465 28.774M94.305 155.324l-19.684 23.45M97.855 162.3l-15.75 18.76M124.457 160.645l-30.152-5.32M74.62 178.773l10.466 28.774M85.086 207.547l30.152 5.324M89.355 200.984l24.122 4.258M85.086 207.547l-9.84 11.726" stroke-width="1.2" stroke="#000" stroke-miterlimit="10" fill="none"/><path d="M75.246 219.273l-9.844 11.723" stroke-width="1.2" stroke="#f00" stroke-miterlimit="10" fill="none"/><path d="M115.238 212.87l19.688-23.452M134.926 189.418l-10.47-28.773M127.105 189.004l-8.37-23.02" stroke-width="1.2" stroke="#000" stroke-miterlimit="10" fill="none"/><path d="M65.402 230.996l-15.078-2.66" stroke-width="1.2" stroke="#f00" stroke-miterlimit="10" fill="none"/><path d="M50.324 228.336l-15.074-2.66" stroke-width="1.2" stroke="#000" stroke-miterlimit="10" fill="none"/><path d="M60.402 223.996h10v14h-10zm0 0" fill="#fff"/><use xlink:href="#c" x="60.402" y="235.135" fill="#f00"/></g></svg>
